src/img/calc/bikinired.svg

<svg width="49" height="56" viewBox="0 0 49 56" fill="none" xmlns="http://www.w3.org/2000/svg">
<path d="M16.2035 0.152832C16.2035 0.152832 20.8776 6.50256 15.5803 13.6938C10.283 20.9616 -4.82989 36.1091 1.55803 55.9998C1.55803 55.9998 -1.40223 43.9889 3.97297 33.814C9.34817 23.6392 13.7886 20.9616 18.5405 14.8414C23.1367 8.72114 18.6963 2.90693 16.2035 0.152832Z" fill="#D77C69"/>
<path d="M23.4483 38.8633C23.4483 38.8633 28.6677 43.7595 28.6677 55.9999C28.6677 55.9999 26.7981 43.989 23.4483 38.8633Z" fill="#D77C69"/>
<path d="M37.6264 42.6118C37.6264 42.6118 35.0556 48.426 27.7329 50.0326L28.2003 51.8686C28.2003 51.8686 34.8998 50.1091 37.6264 42.6118Z" fill="#D77C69"/>
<path d="M48.8442 0.152832C48.8442 0.152832 48.8442 5.58453 46.4292 10.5572C44.7154 14.0763 45.9618 17.2129 45.2607 22.8741C44.6375 28.5353 42.3784 34.8851 38.8728 39.5517C38.8728 39.5517 43.7806 34.7321 45.5723 25.6282C47.1303 17.519 45.5723 15.5299 47.1303 11.8578C49.3116 6.57906 49.0779 2.60092 48.8442 0.152832Z" fill="#D77C69"/>
<path d="M45.806 26.8525C45.806 26.8525 46.7408 32.1312 44.5596 38.3279C42.3784 44.6777 47.9094 56.0001 47.9094 56.0001C47.9094 56.0001 44.1701 50.9509 43.0016 45.5192C41.911 40.164 43.2353 38.3279 44.248 35.6504C45.1828 32.9728 45.806 31.1367 45.806 26.8525Z" fill="#D77C69"/>
<path d="M43.6248 0C43.6248 0 44.5596 5.35519 42.0668 10.8634C39.5739 16.3716 41.054 18.9727 41.054 18.9727C41.054 18.9727 40.8203 14.765 42.3005 12.0109C43.9364 8.79781 44.9491 5.5847 43.6248 0Z" fill="#D77C69"/>
</svg>

<svg width="49" height="56" fill="none" xmlns="http://www.w3.org/2000/svg"><path d="M16.203.153s4.675 6.35-.623 13.54C10.283 20.963-4.83 36.11 1.558 56c0 0-2.96-12.011 2.415-22.186s9.816-12.852 14.568-18.973c4.596-6.12.155-11.934-2.338-14.688zM23.448 38.863s5.22 4.897 5.22 17.137c0 0-1.87-12.011-5.22-17.137z" fill="#D77C69"/><path d="M37.626 42.612s-2.57 5.814-9.893 7.42l.467 1.837s6.7-1.76 9.426-9.257zM48.844.153s0 5.432-2.415 10.404c-1.714 3.52-.467 6.656-1.168 12.317-.623 5.661-2.883 12.011-6.388 16.678 0 0 4.908-4.82 6.7-13.924 1.557-8.109 0-10.098 1.557-13.77C49.312 6.579 49.078 2.6 48.844.153zM45.806 26.852s.935 5.28-1.246 11.476C42.378 44.678 47.91 56 47.91 56s-3.74-5.05-4.908-10.48c-1.091-5.356.233-7.192 1.246-9.87.935-2.677 1.558-4.513 1.558-8.797zM43.625 0s.935 5.355-1.558 10.863c-2.493 5.509-1.013 8.11-1.013 8.11s-.234-4.208 1.246-6.962C43.937 8.798 44.95 5.585 43.626 0z" fill="#D77C69"/></svg>
